src/assets/outline/Note.svg

<svg width="24" height="24" viewBox="0 0 24 24"  xmlns="http://www.w3.org/2000/svg">
<path d="M15.8101 20.18C15.5501 20.18 15.2801 20.17 14.9901 20.14C14.4701 20.1 13.8801 20 13.2701 19.85L11.5901 19.45C6.98007 18.36 5.47007 15.92 6.55007 11.32L7.53007 7.13001C7.75007 6.18002 8.01007 5.41002 8.33007 4.77002C10.0501 1.22002 13.3401 1.54001 15.6801 2.09001L17.3501 2.48001C19.6901 3.03001 21.1701 3.90001 22.0001 5.23002C22.8201 6.56002 22.9501 8.27001 22.4001 10.61L21.4201 14.79C20.5601 18.45 18.7701 20.18 15.8101 20.18ZM13.1201 3.25001C11.4501 3.25001 10.3901 3.94002 9.68007 5.42002C9.42007 5.96002 9.19007 6.63001 8.99007 7.47001L8.01007 11.66C7.12007 15.44 8.15007 17.09 11.9301 17.99L13.6101 18.39C14.1501 18.52 14.6601 18.6 15.1201 18.64C17.8301 18.91 19.1901 17.72 19.9501 14.45L20.9301 10.27C21.3801 8.34002 21.3201 6.99002 20.7201 6.02001C20.1201 5.05001 18.9401 4.39002 17.0001 3.94002L15.3301 3.55001C14.5001 3.35001 13.7601 3.25001 13.1201 3.25001Z" />
<path d="M8.33005 22.2502C5.76005 22.2502 4.12005 20.7102 3.07005 17.4602L1.79005 13.5102C0.370052 9.11017 1.64005 6.63017 6.02005 5.21017L7.60005 4.70017C8.12005 4.54017 8.51005 4.43017 8.86005 4.37017C9.14005 4.31017 9.43005 4.42017 9.60005 4.65017C9.77005 4.88017 9.80005 5.18017 9.68005 5.44017C9.42005 5.97017 9.19005 6.64017 9.00005 7.48017L8.02005 11.6702C7.13005 15.4502 8.16005 17.1002 11.9401 18.0002L13.6201 18.4002C14.1601 18.5302 14.6701 18.6102 15.1301 18.6502C15.4501 18.6802 15.7101 18.9002 15.8001 19.2102C15.8801 19.5202 15.7601 19.8402 15.5001 20.0202C14.8401 20.4702 14.0101 20.8502 12.9601 21.1902L11.3801 21.7102C10.2301 22.0702 9.23005 22.2502 8.33005 22.2502ZM7.78005 6.22017L6.49005 6.64017C2.92005 7.79017 2.07005 9.47017 3.22005 13.0502L4.50005 17.0002C5.66005 20.5702 7.34005 21.4302 10.9101 20.2802L12.4901 19.7602C12.5501 19.7402 12.6001 19.7202 12.6601 19.7002L11.6001 19.4502C6.99005 18.3602 5.48005 15.9202 6.56005 11.3202L7.54005 7.13017C7.61005 6.81017 7.69005 6.50017 7.78005 6.22017Z" />
</svg>

<?xml version="1.0" encoding="UTF-8"?>
<svg width="24" height="24" viewBox="0 0 24 24" xmlns="http://www.w3.org/2000/svg">
 <path d="m15.81 20.18c-0.26 0-0.53-0.01-0.82-0.04-0.52-0.04-1.11-0.14-1.72-0.29l-1.68-0.4c-4.61-1.09-6.12-3.53-5.04-8.13l0.98-4.19c0.22-0.94999 0.48-1.72 0.8-2.36 1.72-3.55 5.01-3.23 7.35-2.68l1.67 0.39c2.34 0.55 3.82 1.42 4.65 2.75 0.82 1.33 0.95 3.04 0.4 5.38l-0.98 4.18c-0.86 3.66-2.65 5.39-5.61 5.39zm-2.69-16.93c-1.67 0-2.73 0.69001-3.44 2.17-0.26 0.54-0.49 1.21-0.69 2.05l-0.98 4.19c-0.89 3.78 0.14 5.43 3.92 6.33l1.68 0.4c0.54 0.13 1.05 0.21 1.51 0.25 2.71 0.27 4.07-0.92 4.83-4.19l0.98-4.18c0.45-1.93 0.39-3.28-0.21-4.25-0.6-0.97-1.78-1.63-3.72-2.08l-1.67-0.39001c-0.83-0.2-1.57-0.3-2.21-0.3z"/>
 <path d="m8.33 22.25c-2.57 0-4.21-1.54-5.26-4.79l-1.28-3.95c-1.42-4.4-0.15-6.88 4.23-8.3l1.58-0.51c0.52-0.16 0.91-0.27 1.26-0.33 0.28-0.06 0.57 0.05 0.74 0.28s0.2 0.53 0.08 0.79c-0.26 0.53-0.49 1.2-0.68 2.04l-0.98 4.19c-0.89 3.78 0.14 5.43 3.92 6.33l1.68 0.4c0.54 0.13 1.05 0.21 1.51 0.25 0.32 0.03 0.58 0.25 0.67 0.56 0.08 0.31-0.04 0.63-0.3 0.81-0.66 0.45-1.49 0.83-2.54 1.17l-1.58 0.52c-1.15 0.36-2.15 0.54-3.05 0.54zm-0.55-16.03-1.29 0.42c-3.57 1.15-4.42 2.83-3.27 6.41l1.28 3.95c1.16 3.57 2.84 4.43 6.41 3.28l1.58-0.52c0.06-0.02 0.11-0.04 0.17-0.06l-1.06-0.25c-4.61-1.09-6.12-3.53-5.04-8.13l0.98-4.19c0.07-0.32 0.15-0.63 0.24-0.91z"/>
</svg>
